X: 5
T: Missa Ave regina celorum / Agnus Dei
N: Derived from Duf1002e-Missa_Ave_regina_celorum-Agnus.krn
C: Guillaume Du Fay
%%abc-version 2.0
%%abcx-abcm2ps-target-version 5.9.1 (29 Sep 2008)
%%abc-creator hum2abc beta
%%abcx-conversion-date 2019/02/16 20:31:46
%%abc-edited-by Alejandro Planchart, Jesse Rodin
%%abc-edited-by Alejandro Planchart
%%abcx-initial-encoding-date 2014/07/19/
%%humdrum-veritas 1189699363
%%humdrum-veritas-data 2694244262
%%linebreak <none>
%%barnumbers 0
L: 1/4
M: 3/1
Q: 1/2=120
%%staves [1 2 3 4]
V: 1 clef=treble
V: 2 clef=treble-8
V: 3 clef=treble-8
V: 4 clef=bass
K: C
[V:1] c6B2A4 | 
[V:2] f8c4 | 
[V:3] z12 | 
[V:4] F,8F,4 | 
[V:1] G4F2A3GE2 | 
[V:2] c4d3cA4- | 
[V:3] z12 | 
[V:4] _E,4D,6C,2 | 
[V:1] F4G6=E2 | 
[V:2] A4G8 | 
[V:3] z12 | 
[V:4] D,4_E,6C,2 | 
[V:1] E4z2A2G2E2 | 
[V:2] z2g4f2e4 | 
[V:3] c8c4 | 
[V:4] C,12 | 
[V:1] F2D2F2G2A4- | 
[V:2] d2f4e2d4 | 
[V:3] _B4A6G2 | 
[V:4] D,8D,2=E,2 | 
[V:1] A4D4G4- | 
[V:2] c4g3fd4 | 
[V:3] A4_B6G2- | 
[V:4] F,4G,8 | 
[V:1] G2c2B2A2BAGF | 
[V:2] e4c4[d4f4] | 
[V:3] G2A2G2c4=B2 | 
[V:4] C,4E,2F,2D,4 | 
[V:1] E4z4G4 | 
[V:2] [G8g8]e4 | 
[V:3] c12 | 
[V:4] C,8z4 | 
[V:1] A2c4B2G4 | 
[V:2] c4f4e3d | 
[V:3] z12 | 
[V:4] F,3G,A,2B,2C4 | 
[V:1] A2A3GF2E2F2 | 
[V:2] f4F4c2A2 | 
[V:3] c12 | 
[V:4] F,4A,8 | 
[V:1] G6F2D4 | 
[V:2] B12 | 
[V:3] d12 | 
[V:4] G,12 | 
[V:1] C4z4G4 | 
[V:2] G6c6 | 
[V:3] e12 | 
[V:4] C,12 | 
[V:1] G3AB2c2B2G2- | 
[V:2] z2B4A2B3c | 
[V:3] e12 | 
[V:4] E,3F,G,2A,2G,2E,2 | 
[V:1] G2A2B2G4F2 | 
[V:2] B2A2G2B3cBA | 
[V:3] d8d4 | 
[V:4] G,2F,2G,4D,4 | 
[V:1] G4z2d3cd2 | 
[V:2] c4A4d4 | 
[V:3] e4f8 | 
[V:4] C,4D,4B,,4 | 
[V:1] e2c4B2B2A2 | 
[V:2] c4z4g4- | 
[V:3] e4d8 | 
[V:4] C,4G,8 | 
[V:1] c4z4c4- | 
[V:2] g4e2f2g4 | 
[V:3] c12- | 
[V:4] C,12 | 
[V:1] c2B2A2G2G4- | 
[V:2] a2g2e8- | 
[V:3] c12 | 
[V:4] z12 | 
[V:1] G2A2G2A4B2 | 
[V:2] e4d2e2f3g | 
[V:3] z12 | 
[V:4] C4B,2C2D4 | 
[V:1] c2A3GG4^F2 | 
[V:2] e4d2d4c2 | 
[V:3] z12 | 
[V:4] C4B,4A,4 | 
[V:1] G4D3EF3G | 
[V:2] d4B4c4 | 
[V:3] z12 | 
[V:4] G,8A,4 | 
[V:1] E2D3CC4B,2 | 
[V:2] B2A3GG4F2 | 
[V:3] z12 | 
[V:4] G,2F,2G,2E,2D,4 | 
[V:1] C4z2G4E2 | 
[V:2] G4z4e4 | 
[V:3] c8c4 | 
[V:4] C,12 | 
[V:1] F2G2A6B2 | 
[V:2] d4c2f4e2 | 
[V:3] _B4A8 | 
[V:4] D,2E,2F,8 | 
[V:1] G8c4- | 
[V:2] d4e6c2- | 
[V:3] _B4G8 | 
[V:4] G,4C,8 | 
[V:1] c2c4A2B4 | 
[V:2] c2f2e2f2g2e2 | 
[V:3] A6c2=B3A | 
[V:4] F,4A,4G,4 | 
[V:1] A4B2c2dcBA | 
[V:2] f4z2A4B2 | 
[V:3] c12 | 
[V:4] F,12 | 
[V:1] G4A4F4 | 
[V:2] c2Bcd2A2B3A | 
[V:3] z12 | 
[V:4] E,4D,8 | 
[V:1] E4z4c4 | 
[V:2] c4G4z2g2- | 
[V:3] c12 | 
[V:4] C,8z4 | 
[V:1] B6c2d4 | 
[V:2] g6f2d4 | 
[V:3] d12 | 
[V:4] G,6A,2B,4 | 
[V:1] G4A2c4B2 | 
[V:2] z2c6A2B2 | 
[V:3] e12 | 
[V:4] C4A,6G,2 | 
[V:1] A4!fermata!G4z4 | 
[V:2] c4!fermata!B4z4 | 
[V:3] !fermata!e12 | 
[V:4] A,4!fermata!E,4z4 | 
[V:1] c8B4- | 
[V:2] g8g4- | 
[V:3] e8d4- | 
[V:4] C,8G,4- | 
[V:1] B4G8 | 
[V:2] g4c8 | 
[V:3] d4e8 | 
[V:4] G,2F,2E,8 | 
[V:1] A4B4c4- | 
[V:2] d8G4 | 
[V:3] f8e4- | 
[V:4] D,8C,4- | 
[V:1] c4d8 | 
[V:2] g6f4g2 | 
[V:3] e4d8 | 
[V:4] C,4B,,8 | 
[V:1] e6c2c4 ||  
[V:2] e2f2g8 ||  
[V:3] c12 ||  
[V:4] C,12 ||  
[V:1]  [K:C] [K:clef=treble][M:4/2]c6B2 | 
[V:2]  [K:C] [K:clef=treble-8][M:4/2]c8- | 
[V:3]  [K:C] [K:clef=treble-8][M:4/2]z8 | 
[V:4]  [K:C] [K:clef=bass][M:4/2]z8 | 
[V:1] A2G2G4- | 
[V:2] c8- | 
[V:3] z8 | 
[V:4] z8 | 
[V:1] G4A4 | 
[V:2] c8- | 
[V:3] z8 | 
[V:4] z8 | 
[V:1] G4E4 | 
[V:2] c8 | 
[V:3] z8 | 
[V:4] z8 | 
[V:1] F4G4- | 
[V:2] A4G4 | 
[V:3] z8 | 
[V:4] z8 | 
[V:1] G2F2E2C2 | 
[V:2] c8 | 
[V:3] z8 | 
[V:4] z8 | 
[V:1] D4E4 | 
[V:2] B2A2c4- | 
[V:3] z8 | 
[V:4] z8 | 
[V:1] C4z4 | 
[V:2] c2d2e4- | 
[V:3] z8 | 
[V:4] z8 | 
[V:1] c4B4 | 
[V:2] e2f2g4 | 
[V:3] z8 | 
[V:4] z8 | 
[V:1] e4d4- | 
[V:2] c4f4- | 
[V:3] z8 | 
[V:4] z8 | 
[V:1] d2c2c4- | 
[V:2] f4e4 | 
[V:3] z8 | 
[V:4] z8 | 
[V:1] c4B2A2 | 
[V:2] d8 | 
[V:3] z8 | 
[V:4] z8 | 
[V:1] c4G2A2 | 
[V:2] c8- | 
[V:3] z8 | 
[V:4] z8 | 
[V:1] G2c4A2 | 
[V:2] c8 | 
[V:3] z8 | 
[V:4] z8 | 
[V:1] B4G4- | 
[V:2] G4B4 | 
[V:3] z8 | 
[V:4] z8 | 
[V:1] G2^F2F2E2 | 
[V:2] A8 | 
[V:3] z8 | 
[V:4] z8 | 
[V:1] G8 | 
[V:2] G8 | 
[V:3] z8 | 
[V:4] z8 | 
[V:1] D4G4- | 
[V:2] z8 | 
[V:3] z8 | 
[V:4] z8 | 
[V:1] G2E2F4 | 
[V:2] c4d4 | 
[V:3] z8 | 
[V:4] z8 | 
[V:1] G4z4 | 
[V:2] e4f4 | 
[V:3] z8 | 
[V:4] C,4D,4 | 
[V:1] z8 | 
[V:2] e2c2d4 | 
[V:3] z8 | 
[V:4] E,4F,4 | 
[V:1] z8 | 
[V:2] e4d2f2 | 
[V:3] z8 | 
[V:4] E,2C,2D,4 | 
[V:1] z8 | 
[V:2] g2e4d2 | 
[V:3] z8 | 
[V:4] E,2G,2F,4 | 
[V:1] z8 | 
[V:2] e4z4 | 
[V:3] z8 | 
[V:4] E,8 | 
[V:1] z8 | 
[V:2] g6f2 | 
[V:3] z8 | 
[V:4] z8 | 
[V:1] z8 | 
[V:2] e4d4 | 
[V:3] z8 | 
[V:4] G,6F,2 | 
[V:1] z8 | 
[V:2] c4B4 | 
[V:3] z8 | 
[V:4] E,4D,4 | 
[V:1] z8 | 
[V:2] e4d4- | 
[V:3] z8 | 
[V:4] C,4B,,4 | 
[V:1] z8 | 
[V:2] d2c2c4- | 
[V:3] z8 | 
[V:4] E,8 | 
[V:1] z8 | 
[V:2] c4B4 | 
[V:3] z8 | 
[V:4] D,8 | 
[V:1] z8 | 
[V:2] c8 | 
[V:3] z8 | 
[V:4] C,8 | 
[V:1] z8 | 
[V:2] z4c4 | 
[V:3] z8 | 
[V:4] F,8 | 
[V:1] z8 | 
[V:2] A4G2_B2- | 
[V:3] z8 | 
[V:4] z4G,4- | 
[V:1] z8 | 
[V:2] B2c2A4 | 
[V:3] z8 | 
[V:4] G,2E,2F,4 | 
[V:1] z8 | 
[V:2] G4G4- | 
[V:3] z8 | 
[V:4] G,4C,2E,2- | 
[V:1] z8 | 
[V:2] G2A4B2 | 
[V:3] z8 | 
[V:4] E,2F,2D,4 | 
[V:1] z8 | 
[V:2] c4e4 | 
[V:3] z8 | 
[V:4] C,4z2C2 | 
[V:1] z8 | 
[V:2] d8 | 
[V:3] z8 | 
[V:4] D2B,4A,2 | 
[V:1] z8 | 
[V:2] c2z2c4 | 
[V:3] z8 | 
[V:4] C4A,4 | 
[V:1] z8 | 
[V:2] d4e4 | 
[V:3] z8 | 
[V:4] G,8 | 
[V:1] z8 | 
[V:2] f4e2f2 | 
[V:3] z8 | 
[V:4] F,4A,4 | 
[V:1] z8 | 
[V:2] g2e4c2 | 
[V:3] z8 | 
[V:4] G,4C,4 | 
[V:1] z8 | 
[V:2] d2e2c4 | 
[V:3] z8 | 
[V:4] B,,2C,4E,2 | 
[V:1] z8 | 
[V:2] B2A4G2 | 
[V:3] z8 | 
[V:4] D,4F,2E,2 | 
[V:1] z8 | 
[V:2] c2B2c2d2- | 
[V:3] z8 | 
[V:4] C,2E,4F,2 | 
[V:1] z8 | 
[V:2] d2B2c2d2 | 
[V:3] z8 | 
[V:4] G,4A,2B,2 | 
[V:1] z8 | 
[V:2] e4f2d2 | 
[V:3] z8 | 
[V:4] C2A,3G,F,2 | 
[V:1] z8 | 
[V:2] e2c2z2G2 | 
[V:3] z8 | 
[V:4] E,2z2F,2E,2 | 
[V:1] z8 | 
[V:2] A2B2c2d2 | 
[V:3] z8 | 
[V:4] F,2G,2A,2F,2 | 
[V:1] z8 | 
[V:2] e2c4B2 | 
[V:3] z8 | 
[V:4] G,2E,2D,4 | 
[V:1] z8 | 
[V:2] c8 | 
[V:3] z8 | 
[V:4] C,8- | 
[V:1] G4A4 | 
[V:2] z8 | 
[V:3] z8 | 
[V:4] C,8 | 
[V:1] G4c4 | 
[V:2] c8 | 
[V:3] z8 | 
[V:4] z8 | 
[V:1] B4A4- | 
[V:2] d8 | 
[V:3] z8 | 
[V:4] z8 | 
[V:1] A2G2G4- | 
[V:2] e8 | 
[V:3] z8 | 
[V:4] z8 | 
[V:1] G4c4 | 
[V:2] c8 | 
[V:3] z8 | 
[V:4] z8 | 
[V:1] A4B4 | 
[V:2] d8 | 
[V:3] z8 | 
[V:4] z8 | 
[V:1] c8 | 
[V:2] c4A4 | 
[V:3] z8 | 
[V:4] z8 | 
[V:1] d6c2 | 
[V:2] B8 | 
[V:3] z8 | 
[V:4] z8 | 
[V:1] A2G2G4 | 
[V:2] c8- | 
[V:3] z8 | 
[V:4] z8 | 
[V:1] z4E4 | 
[V:2] c8 | 
[V:3] z8 | 
[V:4] z8 | 
[V:1] D2G4F2 | 
[V:2] G6A2 | 
[V:3] z8 | 
[V:4] z8 | 
[V:1] D4E4 | 
[V:2] B4c4- | 
[V:3] z8 | 
[V:4] z8 | 
[V:1] C8 | 
[V:2] c4g4 | 
[V:3] z8 | 
[V:4] z8 | 
[V:1] c4d4 | 
[V:2] e4f4 | 
[V:3] z8 | 
[V:4] z8 | 
[V:1] B6A2 | 
[V:2] g8 | 
[V:3] z8 | 
[V:4] z8 | 
[V:1] c8 | 
[V:2] c8- | 
[V:3] z8 | 
[V:4] z8 | 
[V:1] z8 | 
[V:2] c8 | 
[V:3] z8 | 
[V:4] z8 | 
[V:1] _e8 | 
[V:2] z8 | 
[V:3] z8 | 
[V:4] C8 | 
[V:1] d8 | 
[V:2] z8 | 
[V:3] z8 | 
[V:4] B,8 | 
[V:1] c8 | 
[V:2] _e8 | 
[V:3] z8 | 
[V:4] C8 | 
[V:1] B8 | 
[V:2] d8 | 
[V:3] z8 | 
[V:4] G,8 | 
[V:1] c8 | 
[V:2] c8 | 
[V:3] z8 | 
[V:4] _A,8 | 
[V:1] d8 | 
[V:2] B8 | 
[V:3] z8 | 
[V:4] G,8 | 
[V:1] G8 | 
[V:2] c8 | 
[V:3] z8 | 
[V:4] _E,8 | 
[V:1] ^F8 | 
[V:2] d8 | 
[V:3] z8 | 
[V:4] D,8 | 
[V:1] _B8 | 
[V:2] G8 | 
[V:3] z8 | 
[V:4] (3_E,6F,2G,4 | 
[V:1] A8 | 
[V:2] ^F8 | 
[V:3] z8 | 
[V:4] D,8 | 
[V:1] G4G4- | 
[V:2] _B4_B4 | 
[V:3] z8 | 
[V:4] G,8 | 
[V:1] G4^F4 | 
[V:2] A8 | 
[V:3] z8 | 
[V:4] D,8 | 
[V:1] G8 | 
[V:2] G8 | 
[V:3] z8 | 
[V:4] z8 | 
[V:1] _B8 | 
[V:2] z4d4- | 
[V:3] z8 | 
[V:4] G,8 | 
[V:1] A4G4- | 
[V:2] d4_e4- | 
[V:3] z8 | 
[V:4] F,2_E,2C,4- | 
[V:1] G4F4 | 
[V:2] e4d4 | 
[V:3] z8 | 
[V:4] C,2B,,6 | 
[V:1] _E8 | 
[V:2] c8 | 
[V:3] z8 | 
[V:4] C,4_E,3F, | 
[V:1] !fermata!D8 | 
[V:2] !fermata!B8 | 
[V:3] z8 | 
[V:4] !fermata!G,8 | 
[V:1] _E8- | 
[V:2] c6B2 | 
[V:3] z8 | 
[V:4] C,8- | 
[V:1] E4C4 | 
[V:2] G8- | 
[V:3] z8 | 
[V:4] C,8- | 
[V:1] C8 ||  
[V:2] G8 ||  
[V:3] z8 ||  
[V:4] C,8 ||  
[V:1]  [K:C] [K:clef=treble][M:4/2]c8- | 
[V:2]  [K:C] [K:clef=treble-8][M:4/2]c8 | 
[V:3]  [K:C] [K:clef=treble-8][M:4/2]c8 | 
[V:4]  [K:C] [K:clef=bass][M:4/2]C8- | 
[V:1] c8 | 
[V:2] A8 | 
[V:3] e8- | 
[V:4] C8 | 
[V:1] B8 | 
[V:2] B8 | 
[V:3] e4g4 | 
[V:4] G,8 | 
[V:1] A4c4 | 
[V:2] c8 | 
[V:3] f6e2 | 
[V:4] A,8 | 
[V:1] B6A2 | 
[V:2] d8 | 
[V:3] g8- | 
[V:4] G,8 | 
[V:1] B4c4 | 
[V:2] e8 | 
[V:3] g8 | 
[V:4] E,4C,4 | 
[V:1] A8 | 
[V:2] d8 | 
[V:3] f8 | 
[V:4] D,8 | 
[V:1] G4A4 | 
[V:2] z8 | 
[V:3] e4d4- | 
[V:4] E,4F,4 | 
[V:1] B4c4 | 
[V:2] g4f2e2 | 
[V:3] d4c4 | 
[V:4] G,4A,4 | 
[V:1] B2B4A2 | 
[V:2] g8- | 
[V:3] d8 | 
[V:4] G,8 | 
[V:1] c6B2 | 
[V:2] g8 | 
[V:3] c8 | 
[V:4] C,8- | 
[V:1] G8 | 
[V:2] e4g4 | 
[V:3] z8 | 
[V:4] C,8 | 
[V:1] z4A4- | 
[V:2] f4e2d2 | 
[V:3] c8 | 
[V:4] F,8 | 
[V:1] A2B2c4 | 
[V:2] c4f4 | 
[V:3] A8 | 
[V:4] z4F,4 | 
[V:1] B4G4 | 
[V:2] d4e4 | 
[V:3] =B4c4 | 
[V:4] G,4E,4 | 
[V:1] (3A8G2F2 | 
[V:2] c8- | 
[V:3] A8 | 
[V:4] F,8 | 
[V:1] E4z4 | 
[V:2] c8 | 
[V:3] G8 | 
[V:4] C,8 | 
[V:1] D4G4 | 
[V:2] z8 | 
[V:3] G8 | 
[V:4] z4E,4 | 
[V:1] F6G2 | 
[V:2] z8 | 
[V:3] A8 | 
[V:4] F,4D,4- | 
[V:1] A4G4 | 
[V:2] z8 | 
[V:3] A2=B2c4- | 
[V:4] D,4E,4 | 
[V:1] E2F2G4- | 
[V:2] z8 | 
[V:3] c2d2e2f2 | 
[V:4] C,6B,,2 | 
[V:1] G4A4 | 
[V:2] z8 | 
[V:3] e4c4 | 
[V:4] C,4A,,4 | 
[V:1] D2F4G2 | 
[V:2] z8 | 
[V:3] d8 | 
[V:4] B,,8 | 
[V:1] E8 | 
[V:2] G8 | 
[V:3] c4z4 | 
[V:4] C,8 | 
[V:1] z8 | 
[V:2] A4G4 | 
[V:3] c4d4 | 
[V:4] z8 | 
[V:1] z8 | 
[V:2] c4A2B2- | 
[V:3] e4f4 | 
[V:4] C,4D,4 | 
[V:1] z8 | 
[V:2] B2c2A4 | 
[V:3] e4d4- | 
[V:4] E,4F,4 | 
[V:1] z8 | 
[V:2] B4G4- | 
[V:3] d2c2c4- | 
[V:4] G,4E,4 | 
[V:1] z8 | 
[V:2] G4F4 | 
[V:3] c4=B4 | 
[V:4] D,8 | 
[V:1] z8 | 
[V:2] G8 | 
[V:3] c8 | 
[V:4] C,8 | 
[V:1] c8 | 
[V:2] A4A4- | 
[V:3] z8 | 
[V:4] F,6E,2 | 
[V:1] A4B4 | 
[V:2] A4G4 | 
[V:3] z8 | 
[V:4] F,4G,4 | 
[V:1] c8 | 
[V:2] [M:3/1](3:2:2F8c4- | 
[V:3] [M:3/1](3c6d2e4 | 
[V:4] A,8 | 
[V:1] A8 | 
[V:2] (3c4A4B4 | 
[V:3] (3f4d6c2 | 
[V:4] F,8 | 
[V:1] [M:3/1](3:2:2G8c4 | 
[V:2] (3c6d2e4 | 
[V:3] (3:2:2e8g4- | 
[V:4] C,8 | 
[V:1] (3:2:2B8A4 | 
[V:2] (3:2:2f4d8 | 
[V:3] (3:2:2g4f8 | 
[V:4] D,8 | 
[V:1] (3c6B2c4 | 
[V:2] (3e4c4g4- | 
[V:3] e8 | 
[V:4] C,8 | 
[V:1] (3d4B6A2 | 
[V:2] (3g4f4g4 | 
[V:3] d8 | 
[V:4] G,8 | 
[V:1] (3c6B2G4 | 
[V:2] e8 | 
[V:3] c8- | 
[V:4] [M:3/3](3:2:1C,8/1023- | 
[V:1] (3A4G4E4 | 
[V:2] c8 | 
[V:3] (3:2:2c4e8 | 
[V:4] (3:2:1C,12 | 
[V:1] (3:2:2F8E4- | 
[V:2] (3A4_B4c4 | 
[V:3] (3:2:2d8c4- | 
[V:4] (3:2:2D,8A,,4- | 
[V:1] (3:2:2E4D8 | 
[V:2] (3A6F2G4 | 
[V:3] (3:2:2c4d8 | 
[V:4] (3:2:2A,,4_B,,8 | 
[V:1] !fermata!C8 | 
[V:2] !fermata!A8 | 
[V:3] !fermata!e8 | 
[V:4] !fermata!A,,8 | 
[V:1] (3:2:2c8d4- | 
[V:2] (3:2:2c8G4- | 
[V:3] (3:2:2e8d4- | 
[V:4] (3:2:2A,8_B,4- | 
[V:1] (3:2:2d4B8 | 
[V:2] (3G4B6A2 | 
[V:3] (3:2:2d4e8 | 
[V:4] (3:2:2B,4G,8 | 
[V:1] (3:2:2A8G4 | 
[V:2] (3c4d4e4- | 
[V:3] (3:2:2f8e4 | 
[V:4] (3:2:2F,8C4- | 
[V:1] (3:2:2A4B8 | 
[V:2] (3e4d4g4 | 
[V:3] (3:2:2c4d8 | 
[V:4] (3:2:2C4G,8 | 
[V:1] (3A4c6B2 | 
[V:2] (3f4e6d2 | 
[V:3] (3:2:2c8z4 | 
[V:4] A,8 | 
[V:1] (3:2:2A8G4 | 
[V:2] f8 | 
[V:3] (3:2:2z4d8 | 
[V:4] (3:2:2F,8G,4 | 
[V:1] (3E4F4G4- | 
[V:2] z8 | 
[V:3] (3:2:2c8_B4- | 
[V:4] (3:2:2A,8G,4 | 
[V:1] (3:2:2G4A8 | 
[V:2] z8 | 
[V:3] (3:2:2B4A8 | 
[V:4] (3:2:2E,4F,8 | 
[V:1] (3G4B4c4 | 
[V:2] [M:4/2]g8 | 
[V:3] (3_B4G4c4- | 
[V:4] (3:2:2G,8E,4 | 
[V:1] (3:2:5A4B2A2G2F2 | 
[V:2] f8 | 
[V:3] (3c4d4=B4 | 
[V:4] (3:2:2F,4D,8 | 
[V:1] (3:2:1E12 | 
[V:2] g8 | 
[V:3] (3:2:1c12 | 
[V:4] (3:2:1C,12 | 
[V:1] [M:4/2]z8 | 
[V:2] a6g2 | 
[V:3] z8 | 
[V:4] (3:2:2F,8G,4 | 
[V:1] c8 | 
[V:2] e4f4 | 
[V:3] (3:2:1c12 | 
[V:4] (3:2:1A,12 | 
[V:1] B8 | 
[V:2] g8 | 
[V:3] (3:2:1d12 | 
[V:4] (3:2:2G,8F,4 | 
[V:1] c8 | 
[V:2] g8 | 
[V:3] (3:2:1e12 | 
[V:4] (3:2:1E,12 | 
[V:1] d8 | 
[V:2] a8 | 
[V:3] (3:2:1f12 | 
[V:4] (3:2:1D,12 | 
[V:1] e4c4- | 
[V:2] z4g4- | 
[V:3] (3:2:1e12 | 
[V:4] (3:2:1C,12 | 
[V:1] c2B2B2A2 | 
[V:2] g2f2g4 | 
[V:3] (3:2:1d12 | 
[V:4] (3:2:1G,12 | 
[V:1] c8- | 
[V:2] e6f2 | 
[V:3] (3:2:1c8/1023- | 
[V:4] (3:2:1C,8/1023- | 
[V:1] c8 |]  
[V:2] g8 |]  
[V:3] (3:2:1c12 |]  
[V:4] (3:2:1C,12 |]  



